X: 45
M:2/4
L:1/16
K:A
vA,2CE D2F"4"A|"SEGUE."E2GB A2cA|BEcE dEcE|BEcB AFEC|\
|:((3uefg)|a2(ga) fece|b2(bg) agfe|gebe gbeg|fe^df .e2((3efg)|\
a2(ga) fece|fgag fece|fdge afed|cABG "4"A2:|


